X: 2083
T: Çargâh Seyir
C: Erol Bingöl
O: Turkey
F: http://compmusic.upf.edu/node/140
N: yeni-cargah--seyir--sofyan--1--erol_bingol
N: makam= yeni-cargah
N: form= seyir
N: usul= sofyan = 4/4
M: 4/4
L: 1/16
K: C    
Q: 1/4=60
%%MIDI tuningsystem comma53
c6d2 e4 f2e2  | g2f2 e2d2 c8  | c2d2 e2f2 d2e2 f2g2  | \
w:   |   |   | 
g3f e2f2 g8  | 
w:   | 
g4 a2b2 c'4 b2a2  | a2g2 g2a2 b8  | b2c'2 b2a2 b4 a2g2  | \
w:   |   |   | 
g2f2 e2f2 g8  | 
w:   | 
e2f2 e2d2 e4 g4  | f2g2 e2f2 d8  | e3d c4 d2e2 f2g2  | \
w:   |   |   | 
e2d2 c2B2 c8  | 
w:   | 
|


